contributed-vectors/ato.svg

<svg xmlns="http://www.w3.org/2000/svg" xml:space="preserve" id="svg" x="0" y="0" style="enable-background:new 0 0 192 192" version="1.1" viewBox="0 0 192 192"><style>.st1{fill:#73ada4}.st8{font-size:57.1762px}</style><font horiz-adv-x="800"><font-face font-family="Now-Regular" underline-position="-100" underline-thickness="50" units-per-em="800"/><glyph d="M253-8c115 0 208 93 208 208s-93 208-208 208S45 315 45 200 138-8 253-8m0 62c-81 0-146 65-146 146s65 146 146 146c80 0 146-65 146-146S333 54 253 54z" horiz-adv-x="506" unicode="o"/><glyph d="M257 340v60H150v174H88V400H21v-60h67V105C88 42 141-8 203-8c20 0 42 6 53 13v47h-46c-32 0-60 24-60 61v227z" horiz-adv-x="290" unicode="t"/></font><font horiz-adv-x="800"><font-face font-family="NowAlt-Regular" underline-position="-100" underline-thickness="50" units-per-em="800"/><glyph d="M444 52c-22 0-41 15-41 52v146c0 95-78 158-174 158-97 0-176-63-176-158h62c0 62 50 96 113 96s113-34 113-96v-33H188c-83 0-135-44-135-113C53 36 105-8 189-8c71 0 128 27 157 72 13-43 45-72 93-72 11 0 22 3 30 8v52m-267-6c-49 0-81 23-81 59s31 60 80 60h140v-26c-20-57-72-93-139-93z" horiz-adv-x="477" unicode="a"/></font><path id="template" d="M29.5 19.5h133c5.5 0 10 4.5 10 10v133c0 5.5-4.5 10-10 10h-133c-5.5 0-10-4.5-10-10v-133c0-5.5 4.5-10 10-10z" style="fill:#fff"/><g id="circle"><path d="M99.8 32.8c2.9.4 5.8.7 8.7 1.3 24 4.5 44.1 24.2 49.1 48.1.6 2.9.9 5.9 1.3 8.8 0 .3.1.6.2 1v8.1c-.3 2.4-.6 4.7-1 7.1-1 5.8-2.8 11.3-5.4 16.6-.1.3-.3.6-.6 1l-2.1-1.2c7.7-15.9 8.8-32.2 2.7-48.8-5.2-14.1-14.6-24.8-27.8-32-14.3-7.8-29.5-9.5-45.2-5.1C64 42 52.1 51.5 43.6 65.4c-.6-.3-1.1-.5-1.6-.8-.2-.1-.4-.2-.6-.4l.4-.8c10.4-16.7 25.3-26.8 44.8-30 1.9-.3 3.7-.5 5.6-.7 2.5.1 5.1.1 7.6.1z" class="st1"/><path d="M92 159.2c-1.9-.2-3.7-.5-5.6-.7-.3 0-.6-.1-.8-.2 0-.1-.1-.2-.1-.3.4-2.1.4-2.2 2.7-1.9 11.4 1.4 22.3-.2 32.8-4.9.2-.1.4-.2.7-.3.3.4.5.9.7 1.3.4.7.2 1.1-.5 1.4-4.7 2.1-9.5 3.6-14.6 4.5-2.4.4-4.8.7-7.2 1-2.8.1-5.4.1-8.1.1z" style="fill:#b02a3c"/><path d="M32.8 92.2c.3-2.5.6-5 1-7.5 1.1-6.1 3-12 5.9-17.5.7.3 1.3.7 1.9 1 .1 0 .1.1.3.3-4.9 9.7-7 20-6.5 31.1-.9.1-1.8.1-2.6.1v-7.5z" style="fill:#71a372"/><path d="M81.9 157.8c-3.1-1-6.2-1.9-9.2-3.1-8.2-3.2-15.4-8-21.6-14.2-1.6-1.6-1.6-1.8.4-3.1 2 1.8 3.9 3.7 6 5.4 6.8 5.6 14.5 9.6 23.1 11.8 2.1.6 2.1.6 1.3 3.2z" style="fill:#f8c18c"/><path d="M35.7 102.9c1.4 11.9 5.9 22.4 13.6 31.8-.6.5-1.2 1-1.9 1.7-.4-.4-.7-.8-1.1-1.3-7.1-9-11.3-19.2-13-30.5-.1-1 0-1.7 1.2-1.5.4-.1.7-.2 1.2-.2z" style="fill:#9abeff"/><path d="M148.5 126.4c.8.5 1.5.9 2.2 1.3-6.1 10.3-14.4 18.3-25 24.1-.4-.8-.7-1.5-1-2.3 4.9-2.7 9.4-6 13.4-9.8 4-4 7.4-8.3 10.4-13.3z" style="fill:#8c72bd"/></g><text class="st1 st8" style="font-family:&quot;NowAlt-Regular&quot;" transform="translate(50.51 112.293)">a</text><text class="st1 st8" style="font-family:&quot;Now-Regular&quot;" transform="translate(84.61 112.293)">to</text></svg>

<?xml version="1.0" encoding="utf-8"?>
<!-- Generator: Adobe Illustrator 26.0.0, SVG Export Plug-In . SVG Version: 6.00 Build 0)  -->
<svg version="1.1" id="svg" xmlns="http://www.w3.org/2000/svg" xmlns:xlink="http://www.w3.org/1999/xlink" x="0px" y="0px"
	 viewBox="0 0 192 192" style="enable-background:new 0 0 192 192;" xml:space="preserve">
<style type="text/css">
	.st0{fill:#FFFFFF;}
	.st1{fill:#73ADA4;}
	.st2{fill:#B02A3C;}
	.st3{fill:#71A372;}
	.st4{fill:#F8C18C;}
	.st5{fill:#9ABEFF;}
	.st6{fill:#8C72BD;}
	.st7{font-family:'NowAlt-Regular';}
	.st8{font-size:57.1762px;}
	.st9{font-family:'Now-Regular';}
</style>
<font horiz-adv-x="800">
<!-- \(c\)2015 Now Typeface is a trademark of Alfredo Marco Pradil. All rights reserved. -->
<!-- Copyright: Copyright 2021 Adobe System Incorporated. All rights reserved. -->
<font-face font-family="Now-Regular" units-per-em="800" underline-position="-100" underline-thickness="50"/>
<missing-glyph horiz-adv-x="483" d="M79,0l325,0l0,600l-325,0M127,48l0,504l229,0l0,-504z"/>
<glyph unicode="o" horiz-adv-x="506" d="M253,-8C368,-8 461,85 461,200C461,315 368,408 253,408C138,408 45,315 45,200C45,85 138,-8 253,-8M253,54C172,54 107,119 107,200C107,281 172,346 253,346C333,346 399,281 399,200C399,119 333,54 253,54z"/>
<glyph unicode="t" horiz-adv-x="290" d="M257,340l0,60l-107,0l0,174l-62,0l0,-174l-67,0l0,-60l67,0l0,-235C88,42 141,-8 203,-8C223,-8 245,-2 256,5l0,47l-46,0C178,52 150,76 150,113l0,227z"/>
</font>

	<font horiz-adv-x="800">
<!-- \(c\)2015 Now Alt Typeface is a trademark of Alfredo Marco Pradil. All rights reserved. -->
<!-- Copyright: Copyright 2021 Adobe System Incorporated. All rights reserved. -->
<font-face font-family="NowAlt-Regular" units-per-em="800" underline-position="-100" underline-thickness="50"/>
<missing-glyph horiz-adv-x="483" d="M79,0l325,0l0,600l-325,0M127,48l0,504l229,0l0,-504z"/>
<glyph unicode="a" horiz-adv-x="477" d="M444,52C422,52 403,67 403,104l0,146C403,345 325,408 229,408C132,408 53,345 53,250l62,0C115,312 165,346 228,346C291,346 341,312 341,250l0,-33l-153,0C105,217 53,173 53,104C53,36 105,-8 189,-8C260,-8 317,19 346,64C359,21 391,-8 439,-8C450,-8 461,-5 469,0l0,52M202,46C153,46 121,69 121,105C121,141 152,165 201,165l140,0l0,-26C321,82 269,46 202,46z"/>
</font>

	<g id="template">
	<path class="st0" d="M29.5,19.5h133c5.5,0,10,4.5,10,10v133c0,5.5-4.5,10-10,10h-133c-5.5,0-10-4.5-10-10v-133
		C19.5,24,24,19.5,29.5,19.5z"/>
</g>
<g id="circle">
	<path class="st1" d="M99.8,32.8c2.9,0.4,5.8,0.7,8.7,1.3c24,4.5,44.1,24.2,49.1,48.1c0.6,2.9,0.9,5.9,1.3,8.8c0,0.3,0.1,0.6,0.2,1
		c0,2.7,0,5.4,0,8.1c-0.3,2.4-0.6,4.7-1,7.1c-1,5.8-2.8,11.3-5.4,16.6c-0.1,0.3-0.3,0.6-0.6,1c-0.7-0.4-1.4-0.8-2.1-1.2
		c7.7-15.9,8.8-32.2,2.7-48.8c-5.2-14.1-14.6-24.8-27.8-32c-14.3-7.8-29.5-9.5-45.2-5.1C64,42,52.1,51.5,43.6,65.4
		c-0.6-0.3-1.1-0.5-1.6-0.8c-0.2-0.1-0.4-0.2-0.6-0.4c0.2-0.4,0.3-0.6,0.4-0.8c10.4-16.7,25.3-26.8,44.8-30c1.9-0.3,3.7-0.5,5.6-0.7
		C94.7,32.8,97.3,32.8,99.8,32.8z"/>
	<path class="st2" d="M92,159.2c-1.9-0.2-3.7-0.5-5.6-0.7c-0.3,0-0.6-0.1-0.8-0.2c0-0.1-0.1-0.2-0.1-0.3c0.4-2.1,0.4-2.2,2.7-1.9
		c11.4,1.4,22.3-0.2,32.8-4.9c0.2-0.1,0.4-0.2,0.7-0.3c0.3,0.4,0.5,0.9,0.7,1.3c0.4,0.7,0.2,1.1-0.5,1.4c-4.7,2.1-9.5,3.6-14.6,4.5
		c-2.4,0.4-4.8,0.7-7.2,1C97.3,159.2,94.7,159.2,92,159.2z"/>
	<path class="st3" d="M32.8,92.2c0.3-2.5,0.6-5,1-7.5c1.1-6.1,3-12,5.9-17.5c0.7,0.3,1.3,0.7,1.9,1c0.1,0,0.1,0.1,0.3,0.3
		c-4.9,9.7-7,20-6.5,31.1c-0.9,0.1-1.8,0.1-2.6,0.1C32.8,97.3,32.8,94.7,32.8,92.2z"/>
	<path class="st4" d="M81.9,157.8c-3.1-1-6.2-1.9-9.2-3.1c-8.2-3.2-15.4-8-21.6-14.2c-1.6-1.6-1.6-1.8,0.4-3.1c2,1.8,3.9,3.7,6,5.4
		c6.8,5.6,14.5,9.6,23.1,11.8C82.7,155.2,82.7,155.2,81.9,157.8z"/>
	<path class="st5" d="M35.7,102.9c1.4,11.9,5.9,22.4,13.6,31.8c-0.6,0.5-1.2,1-1.9,1.7c-0.4-0.4-0.7-0.8-1.1-1.3
		c-7.1-9-11.3-19.2-13-30.5c-0.1-1,0-1.7,1.2-1.5C34.9,103,35.2,102.9,35.7,102.9z"/>
	<path class="st6" d="M148.5,126.4c0.8,0.5,1.5,0.9,2.2,1.3c-6.1,10.3-14.4,18.3-25,24.1c-0.4-0.8-0.7-1.5-1-2.3
		c4.9-2.7,9.4-6,13.4-9.8C142.1,135.7,145.5,131.4,148.5,126.4z"/>
</g>
<text transform="matrix(1 0 0 1 50.5104 112.2931)" class="st1 st7 st8">a</text>
<text transform="matrix(1 0 0 1 84.6104 112.2931)" class="st1 st9 st8">to</text>
</svg>
